!!!OTL: MEIN SCHATZ IS E REITER
!!!ARE: Europa, Mitteleuropa, Deutschland, Schwaben
!!!SCT: E1055
!!!YEM: Copyright 1995, estate of Helmut Schaffrath.
**kern
*ICvox
*Ivox
*M3/4
*k[]
*C:
{4G
=1
4.E
8G
4G
=2
4A
4G
4G
=3
4.E
8G
4G
=4
4G
4r}
{4G
=5
4A
4A
4A
=6
4.c
8B
4A
=7
4.A
8G
4G
=8
4G
8r}
{8G
8A
8G
=9
4G
4f
4f
=10
4f
8r
8G
8A
8G
=11
4G
4e
4e
=12
4e
4r}
{8e
8e
=13
4d
4d
8d
8e
=14
4f
4B
4B
=15
4d
4c
4c
=16
4c
4r}
==
!!!AGN: Tanz - Lied, Jodler
!!!ONB: ESAC (Essen Associative Code) Database: ERK3
!!!AMT: simple triple
!!!AIN: vox
!!!EED: Helmut Schaffrath
!!!EEV: 1.0
*-
